X:1
T:F Major, C Major Jacob French, 1789 Revised 1802
T:Various scriptures
T:Dedication Anthem
T:Transcribed from Harmony of Harmony, 1802
%%score [ 1 2 3 4 ]
L:1/8
Q:1/4=140
M:2/2
K:F
V:1 treble nm="Treble" snm="Tr."
V:2 treble nm="Counter" snm="C."
V:3 treble-8 nm="Tenor" snm="T."
V:4 bass nm="Bass" snm="B."
V:1
"^Chorus" c4 d2 e2 | f8 | c4 c4 | c6 c2 | c2 d2 e2 e2 | f6 f2 | f2 f2 f2 d2 | e8 | f3 f c2 gf | %9
 (e2 c2) c2 A2 | B2 d2 c2 c2 | c8 || z4 c3 c | c4 c2 B2 | A4 c2 c2 | c4 B2 =B2 | c6 c2 | f6 f2 | %18
 e2 d2 c2 c2 | c8- | c4 z4 | z8 | z8 | z4"^He    hath      foun–ded it      up  –" c2 c2 | %24
 F3 F F2 F2 | %25
"^–on      the ____   seas,    And es–ta–blished it,  es–ta–blished it up –on   the  floods." G4 (3G2 A2 B2 | %26
 c4 B2 B2 | A3 A d2 =B2 | c3 c c2 d2 | c4 c4 | c8 ||"^Chorus" c4 d2 e2 | f8 | c4 c4 | c6 c2 | %35
 c2 d2 e2 e2 | f6 f2 | f2 f2 f2 d2 | e8 | f3 f c2 gf | (e2 c2) c2 A2 | B2 d2 c2 c2 | c8 || %43
"^Who shall ascend  in –to  the    hill      of   the   Lord?" (A2 G2) A2 B2 | c2 A2 B2 c2 | %45
 (d2 B2) c2 f2 | e6 c2 | f4 d4 | e4 z2 f2 | d4 c4 | c4 Bc d2 | c6 c2 | c4 c2 B2 | A4 f2 e2 | %54
 f4 f2 e2 | d6 f2 | e4 c4 | c4 z4 | z8 | z8 ||[K:C] c4 c3 c | c4 z4 | (d3 c) B3 c | d4 e2 d2 | %64
 (c2 e>c) f2 e2 | d6 c2 | e4 e2 d2 |[M:3/2] c6 G2 (3(A2 B2 c2) | B8 z4 |[M:2/2] c4 c3 c | c4 z4 | %71
 e4 e3 d | c4 A2 c2 | d2 c2 B2 A2 | B6 cd | e4 e2 d2 | c4 B2 A2 | B8 | c8- | c2 z2 c2 c2 | %80
 e2 d2 (cd e2) | (f2 e2) (de f2) | g4 f2 d2 | e8 | z4 z2 c2 | e2 e2 e2 ed | c4 z2 c2 | %87
 f2 f2 f2 fe | d4 z2 d2 |[M:6/4] e4 e2 e4 d2 | c4 c2 (c2 d2) e2 |[M:2/2] f f3 f2 f2 | g8 | %93
 e4 c2 e2 | d4 B4 | c2 f2 d2 d2 | e8 |[M:2/4][Q:1/4=80] z2 ed |: e2 ed | c2 cB | c2 cd | e2 ef | %102
 (g>a g>f | e2) ed/c/ | B3 B | c2 cf | e2 d2 |1 e4- ||1 e2 ed :|2 e2 e2 ||[M:2/2][Q:1/4=140] c8 || %111
[K:F]"^Chorus" c4 d2 e2 | f8 | c4 c4 | c6 c2 | c2 d2 e2 e2 | f6 f2 | f2 f2 f2 d2 | e8 | %119
 f3 f c2 gf | (e2 c2) c2 A2 | B2 d2 c2 c2 | c8 ||"^Who is this king of  glo   –   ry?" c4 c2 c2 | %124
 de f2 (e3 d) | c z4 z A2 | c4 d2 c2 | c4 c4 | z8 | z8 | z8 | z8 | z4 z2 A2 | c4 c4 | B3 B A2 A2 | %135
 A4 A2 z2 || A4 A2 c2 | c8 | B4 A4 | A6 c2 | (d2 c2 B2) c2 | g2 f2 e2 d2 | e6 f2 | c2 A2 d2 c2 | %144
 c6"^The" c2 |"^King of  glo  – ry    comes." d2 d2 dc =B2 | c8 |:[K:C][M:2/4][Q:1/4=80] cG cd | %148
 e>d c2 | dc de | f>e d2 | ce dd | d3 z | gf ed | c>d e2 | fe dc | B>c d2 | cB cf | e>d c>d | %159
 e2 d2 | c2 B2 |1 c4 :|2 c4- || c4 |] %164
V:2
"^Lift     up  your heads,       O    ye   gates, and  be   ye    lif – ted     up,     ye        ev–er–las–ting  doors, And the King of" F4 F2 G2 | %1
 A8 | A4 G4 | A6 A2 | A2 AB c2 cB | A6 AG | F2 F2 A2 G2 | G8 | A3 A A2 G2 | %9
"^glo   –  ry,  of    glory, shall come in.                    For   the   earth is the Lord's and the ful  –  ness there–of,       The    world, and" (G2 F2) F2 F2 | %10
 F2 G2 F2 G2 | A8 || z4 F3 F | E4 F2 G2 | F4 A2 G2 | A4 G2 G2 | G6 FG | A6 B2 | %18
"^they that dwell therein." A2 G2 F2 E2 | F8- | F4 z4 | z8 | %22
 z4"^He    hath    foun–ded  it       up" F2 F2 | G3 G G2 E2 | %24
"^–   on            the ______" C4 (3(D2 E2 F2) | %25
"^seas,  And   es–ta–blished it  up – on the floods, es– ta–blished it upon  the   floods." E4 E2 E2 | %26
 F3 A G2 F2 | E2 F2 G2 G2 | A3 B A2 G2 | F4 [EG]4 | [FA]8 || %31
"^Lift  up your heads, O    ye   gates,  and" F4 F2 G2 | A8 | A4 G4 | A6 A2 | %35
"^be     ye    lif – ted      up,         ye         ev–er–las–ting     doors,     And   the King of         glo  –   ry,   of     glo–ry, shall come in." A2 AB c2 cB | %36
 A6 AG | F2 F2 A2 G2 | G8 | A3 A A2 G2 | (G2 F2) F2 F2 | F2 G2 F2 G2 | A8 || z8 | z8 | z8 | %46
 z4 z2"^And who shall   stand,   and who shall stand in   his      ho    –     ly" F2 | A4 G4 | %48
 G4 z2 F2 | B4 G4 | A4 G2 F2 | (F2 E4) E2 | %52
"^place, for the heav'n is my throne, saith the high and  lof     –     ty           One," F4 F2 E2 | %53
 F4 A2 A2 | A4 A2 c2 | B6 AB | (c3 B) (A2 G2) | A4 z4 | z8 | z8 || %60
[K:C]"^Where  is    the" C4 C3 C | %61
"^house,    Where   is   the house that ye built        un –to   me,    and where is the   place  of    my           rest?              Where is the" C4 z4 | %62
 G4 G3 G | G4 G2 G2 | A4 A2 A2 | G6 G2 | G4 G2 G2 |[M:3/2] G6 G2 ^F4 | G8 z4 |[M:2/2] G4 G3 G | %70
"^house,     Where is    the house that ye built     un –to     me,    and     where is   the  place       of      my     rest?                      For my" G4 z4 | %71
 c4 c3 A | G4 F2 G2 | A4 ^F2 F2 | G6 G2 | c4 c2 A2 | G6 ^F2 | G8 | E8- | E2 z2 E2 E2 | %80
"^hands have made          all                 these things, saith the Lord.                  To    this man will I      look,      To    this man will I" G2 G2 (F2 G2) | %81
 (A2 G4) D2 | E4 A2 G2 | G8 | z4 z2 E2 | G2 G2 G2 G2 | F4 z2 F2 | A2 A2 A2 A2 | %88
"^look,  whose hands are clean, whose heart is pure, who     trembles  at  my   word;       He  shall  re – ceive the blessing from the" G4 z2 G2 | %89
[M:6/4] G4 G2 G4 G2 | G4 G2 G4 A2 |[M:2/2] A A3 A2 A2 | B8 | G4 E2 G2 | F4 E4 | E2 A2 G2 G2 | %96
"^Lord.                En –ter       in  –  to  his  gates with thanks-giv-ing, and  in –  to   his      courts ___________   with       praise, and" G8 | %97
[M:2/4] z2 GG |: G2 GG | G2 GG | G2 GG | G2 G A/B/ | (cGcA | G2) G2 | G3 G | %105
"^in– to  his courts with praise.     En –ter     praise, with praise." G2 GA | G2 G2 |1 G4- ||1 %108
 G2 GG :|2 G2 G2 ||[M:2/2] [FA]8 || %111
[K:F]"^Lift  up your heads,  O     ye     gates, and   be   ye    lif – ted" F4 F2 G2 | A8 | %113
 A4 G4 | A6 A2 | A2 AB c2 cB | %116
"^up,  ye       ev–er–las–ting doors, And the King of   glo–ry, of glo–ry, shall come in." A6 AG | %117
 F2 F2 A2 G2 | G8 | A3 A A2 G2 | (G2 F2) F2 F2 | F2 G2 F2 G2 | A8 || z8 | z8 | z4 z2"^The" F2 | %126
"^Lord, strong and mighty," A4 B2 G2 | A4 A4 | %128
 z4 z2"^The  Lord God   mer – ci –  ful  and   gracious," C2 | F4 E4 | D3 D ^C2 C2 | D4 D2 z2 | %132
 z4 z2"^The  Lord God   mer –ci – ful and" F2 | A4 A4 | F3 G E2 E2 | %135
"^gracious.     Lift up your heads, O   ye    gates,  un – fold __________   ye     ev – er – las–ting doors, The King of glory comes," F4 F2 z2 || %136
 F4 F2 G2 | A8 | G4 E4 | F6 G2 | A>BAGFG A2 | B2 BA G2 G2 | G6 A2 | A2 c2 B2 G2 | A6 z2 | z8 | %146
 z8 |: %147
[K:C][M:2/4]"^Welcome, king of    glo  –  ry.     Welcome, king of     glo  –  ry,      Welcome to   thy    rest," ED EF | %148
 G>F E2 | FE FG | A>G F2 | Gc BA | B3 z | %153
"^Welcome, king of     glo  –  ry.     Welcome, king of     glo  –  ry,      Welcome  king   of       glo    –   ry,          Welcome  to  thy   rest." ED CD | %154
 E>F G2 | AG FE | D>E F2 | GG A/G/ A/B/ | c2 G2 | A2 A2 | G2 G2 |1 E4 :|2"^rest." E4- || E4 |] %164
V:3
 F4 A2 c2 | c8 | f4 e4 | f6 f2 | e2 f2 g2 e2 | c6 c2 | d2 d2 c2 =B2 | c8 | c3 c f2 d2 | %9
 (c2 A2) F2 c2 | d2 B2 A2 G2 | F8 || z4 F3 F | G4 A2 B2 | c4 f2 e2 | (f2 e2) d2 d2 | c6 AB | %17
 c6 d2 | c2 B2 A2 G2 | F8- | F4 z4 | %21
 z4"^He  hath  foun–ded  it      up   –   on            the ______    seas,       And   es –" c2 B2 | %22
 A3 A A2 A2 | G4 (3(G2 A2 B2) | A4 A2 B2 | %25
"^–ta–blished it up–on       the          floods,     and  es – ta–blished it upon  the   floods." c3 c c2 B2 | %26
 A4 d4 | c4 d2 e2 | f3 f f2 B2 | A4 G4 | F8 || F4 A2 c2 | c8 | f4 e4 | f6 f2 | e2 f2 g2 e2 | %36
 c6 c2 | d2 d2 c2 =B2 | c8 | c3 c f2 d2 | (c2 A2) F2 c2 | d2 B2 A2 G2 | F8 || z8 | z8 | z8 | %46
 z4 z2 F2 | c4 =B4 | c4 z2 c2 | f4 e4 | f4 dc B2 | (A2 G4) GF | F4 A2 B2 | c4 c2 c2 | c4 c2 c2 | %55
 f6 f2 | g4 e4 | f4 z4 | z8 | z8 ||[K:C] c4 c3 c | c4 z4 | d4 d3 d | d4 c2 d2 | (e2 c>e) d2 c2 | %65
 B6 G2 | c4 c2 d2 |[M:3/2] e6 d2 c4 | d8 z4 |[M:2/2] e4 e3 e | e4 z4 | g4 g3 f | e4 d2 c2 | %73
 f2 e2 d2 c2 | d6 ef | g4 g2 f2 | e6 c2 | d8 | c8- | c2 z2 G2 G2 | c2 B2 (A2 Bc) | %81
 (d2 c2) (B2 A2) | G4 c2 B2 | c8 | z4 z2 G2 | c2 c2 c2 cB | A4 z2 A2 | d2 d2 d2 dc | B4 z2 G2 | %89
[M:6/4] c4 c2 c4 d2 | e4 e2 (e2 d2) c2 |[M:2/2] d d3 d2 d2 | d8 | c4 G2 E2 | F4 G4 | c2 A2 d2 B2 | %96
 c8 |[M:2/4] z2 cG |: c2 cd | e2 ed | e2 ed | c2 cd | (e>f e>d | c2) cd/e/ | d3 d | e2 ed | %106
 c2 B2 |1 c4- ||1 c2 cG :|2 c2 c2 ||[M:2/2] F8 ||[K:F] F4 A2 c2 | c8 | f4 e4 | f6 f2 | %115
 e2 f2 g2 e2 | c6 c2 | d2 d2 c2 =B2 | c8 | c3 c f2 d2 | (c2 A2) F2 c2 | d2 B2 A2 G2 | F8 || %123
"^Who is this king of  glo   –   ry?" F4 A2 F2 | Bc d2 (c3 B) | A z4 z c2 | f4 f2 e2 | f4 f4 | z8 | %129
 z8 | z8 | z8 | z4 z2 c2 | f4 e4 | d3 d ^c2 c2 | d4 d2 z2 || c4 d2 e2 | f8 | d4 c4 | d6 e2 | %140
 (f2 e2 de) f2 | e2 d2 c2 =B2 | c6 c2 | f2 f2 f2 e2 | f6 z2 | z8 | z8 |:[K:C][M:2/4] cG cd | %148
 e>d c2 | dc de | f>e d2 | ea g^f | g3 z | gf ed | c>d e2 | fe dc | B>c d2 | ed ef | g>f e>d | %159
 c2 f2 | e2 d2 |1 c4 :|2 c4- || c4 |] %164
V:4
 F,4 D,2 C,2 | F,8 | F,4 C,4 | F,6 F,2 | A,2 F,2 C2 C,2 | F,6 F,2 | B,2 B,2 A,F, G,2 | C,8 | %8
 F,3 F, F,2 G,2 | (C,2 F,2) A,2 F,2 | B,2 G,2 C2 C,2 | F,8 || z4 F,3 F, | C,4 F,2 E,2 | %14
 F,4 F,2 C,2 | F,4 G,2 G,2 | C,6 F,2 | F,6 B,,2 | A,,2 B,,2 C,2 C,2 | F,,8- | %20
 F,,4"^He hath foun–ded it    up  – on            the ______   seas,       And   es – ta – blished it     up –" F,2 F,2 | %21
 C,3 C, C,2 C,2 | D,4 (3(D,2 E,2 F,2) | E,4 E,2 E,2 | F,3 E, D,2 D,2 | %25
"^– on      the            floods, ____________          and  es – ta–blished it upon  the   floods." C,4 C,4 | %26
 (F,4 G,4 | A,4) B,2 G,2 | F,3 G, A,2 B,2 | C4 C,4 | F,8 || F,4 D,2 C,2 | F,8 | F,4 C,4 | F,6 F,2 | %35
 A,2 F,2 C2 C,2 | F,6 F,2 | B,2 B,2 A,F, G,2 | C,8 | F,3 F, F,2 G,2 | (C,2 F,2) A,2 F,2 | %41
 B,2 G,2 C2 C,2 | F,8 || %43
"^Who shall ascend  in –to  the    hill      of   the   Lord?" (F,2 E,2) F,2 G,2 | %44
 A,2 F,2 G,2 A,2 | (B,2 G,2) A,2 B,2 | C6 A,2 | F,4 G,4 | C,4 z2 A,2 | B,4 C4 | F,4 B,,2 B,,2 | %51
 C,6 C,2 | F,,4 F,2 G,2 | A,4 C2 A,2 | F,4 F,2 A,2 | B,6 D2 | C4 C,4 | %57
 F,4"^and the earth is my footstool." C2 B,2 | A,4 G,2 F,2 | C,2 C,4 z2 ||[K:C] C,4 C,3 C, | %61
 C,4 z4 | G,4 G,3 G, | G,4 C2 B,2 | A,4 D,2 D,2 | G,6 E,2 | C,4 C,2 G,2 |[M:3/2] C6 B,2 A,4 | %68
 G,8 z4 |[M:2/2] C4 C3 C | C4 z4 | C4 C,3 D, | E,4 F,2 E,2 | D,4 D,2 D,2 | G,6 E,2 | C,4 C,2 D,2 | %76
 E,6 A,2 | G,8 | C,8- | C,2 z2 C,2 C,2 | C,2 D,E, (F,2 E,2) | (D,2 E,F,) (G,2 F,2) | E,4 F,2 G,2 | %83
 C,8 | z4 z2 [C,E,]2 | C,2 C,2 C,2 C,2 | F,4 z2 F,2 | D,2 D,2 D,2 D,2 | G,4 z2 G,2 | %89
[M:6/4] C,4 C,2 C,4 G,2 | C4 C2 (C2 B,2) A,2 |[M:2/2] D, D,3 D,2 D,2 | G,8 | C,4 C,2 C,2 | %94
 D,4 E,4 | A,2 F,2 G,2 G,,2 | C,8 |[M:2/4] z2 C,B,, |: C,2 C,G, | C2 CG, | C2 CG, | E,2 E,D, | %102
 C,4- | C,2 C,2 | G,3 G, | C,2 C,D, | E,2 G,2 |1 C,4- ||1 C,2 C,B,, :|2 C,2 C,2 ||[M:2/2] F,8 || %111
[K:F] F,4 D,2 C,2 | F,8 | F,4 C,4 | F,6 F,2 | A,2 F,2 C2 C,2 | F,6 F,2 | B,2 B,2 A,F, G,2 | C,8 | %119
 F,3 F, F,2 G,2 | (C,2 F,2) A,2 F,2 | B,2 G,2 C2 C,2 | F,8 || z8 | z8 | z4 z2 F,2 | F,4 B,2 C2 | %127
 F,4 F,4 | z4 z2"^The  Lord God   mer – ci –  ful  and   gracious," F,2 | F,4 C,4 | %130
 D,3 D, A,,2 A,,2 | D,4 D,2 z2 | z4 z2 F,2 | F,4 A,4 | B,3 G, A,2 A,2 | D,4 D,2 z2 || F,4 D,2 C,2 | %137
 F,8 | G,4 A,4 | D,6 C,2 | (F,G, A,2 B,2) A,2 | G,2 G,2 G,2 G,2 | C,6 F,2 | F,2 A,2 B,2 C2 | %144
 F,6"^The" A,2 |"^King of  glo  –  ry   comes." G,2 G,2 G,2 G,,2 | C,8 |:[K:C][M:2/4] z4 | z4 | %149
 z4 | z4 |"^Welcome to   thy    rest," CA, DD, | G,3 z | z4 | z4 | z4 | z4 | CG, CD | C2 C>B, | %159
 A,2 F,2 | G,2 G,,2 |1 C,4 :|2 C,4- || C,4 |] %164

